X:19082
T:Xiraldilla (CT 426)
R:Xiraldilla
C:Tradicional
S:Msica Tradicional Asturiana, (C) Tello & Tito. Asturies, 2001.
S:http://pagina.de/MusTradAst <telloytito@asturies.org>
N:Xiraldilla, dictada por Fernando Mnendez lvarez, de treinta y cinco aos, de Llanuces, ayuntamiento de Quirs.
O:Llanuces (Quirs)
A:Asturies
Z:Cancioneru de Torner 426
M:3/8
L:1/8
Q:3/8=88
W:Para ser seorita completa,
W:es preciso gastar almidn,
W:saya blanca con alta peineta,
W:zapatitos de lindo tacn.
K:Cm
G/G/
|: c=Bc|edc|(B>A) G-|G2 z|e2 d|cde|fdc|[1 B2 G/G/ :|[2 B3-|B ||
